X:1
T:Monkey-Bizness
T:By HARRY JENTES
T:Monkey-Bizness
T:Copyright 1924 by Harry Jentes
T:Copyright 1924 by Harry Jentes
T:Copyright 1924 by Harry Jentes
T:Copyright 1924 by Harry Jentes
C:By HARRY JENTES
Z:Copyright 1924 by Harry Jentes
%%score { 1 | 2 }
L:1/8
Q:1/4=180
M:2/2
K:C
V:1 treble nm="Piano" snm="Pno."
V:2 bass 
V:1
"^Allegro Moderato"!ff! !>![Gdg]2 [Aea]!>![Bfb]- [Bfb][cgc'] !>![dad']2 | %1
 !>![ebe']2 [dad']!>![cgc']- [cgc'][Bfb] !>![Aea]2 | %2
 !>![Gdg]2 [Fcf]!>![EBe]- [EBe][DAd] !>![CGc]2 | !>![B,FB]2 z2 !^![GBdg]2 z2 || %4
!mf! z3/2 g<[ce]A/ [^A^c]>g[Bd]>G | [=ce]>g[ce]>A [^A^c]>g[Bd]>G | [=ce]>g[ce]>A [^A^c]>g[Bd]>G | %7
 [=ce] [Gg]2 [_Bg]- [Bg]4 | z3/2 c'<[fa]d/ [^d^f]>c'[eg]>c | [=fa]>c'[fa]>d [^d^f]>c'[eg]>c | %10
 [=fa]>c'[fa]>d [^d^f]>c'[eg]>c | [=fa] [cc']2 [cac']- [cac']4 | z2 [Fcf]2 [=E=B=e]2 [DAd]2 | %13
 [Gcg]3 ^f [B_eb] [Aa]2 [GBdg]- | [GBdg]>d [GBdg]2 [B_fb] [Aa]2 [Gc=eg]- | [Gceg]8 | %16
 z2 [Fcf]2 [EBe]2 [DAd]2 | [Gcg]3 ^f [B_eb] [Aa]2 [GBdg]- | %18
 [GBdg]>d [GBdg]2 [cfa] [Bfg]2 [cegc']- | [cegc']8 ||!f! z3/2 g<[ce]A/ [^A^c]>g[Bd]>G | %21
 [=ce]>g[ce]>A [^A^c]>g[Bd]>G | [=ce]>g[ce]>A [^A^c]>g[Bd]>G | [=ce] [Gg]2 [_Bg]- [Bg]4 | %24
 z3/2 c'<[fa]d/ [^d^f]>c'[eg]>c | [=fa]>c'[fa]>d [^d^f]>c'[eg]>c | [=fa]>c'[fa]>d [^d^f]>c'[eg]>c | %27
 [=fa] [cc']2 [cac']- [cac']4 | z2 [Fcf]2 [=E=B=e]2 [DAd]2 | [Gcg]3 ^f [B_eb] [Aa]2 [GBdg]- | %30
 [GBdg]>d [GBdg]2 [B_fb] [Aa]2 [Gc=eg]- | [Gceg]8 | z2 [Fcf]2 [EBe]2 [DAd]2 | %33
 [Gcg]3 ^f [B_eb] [Aa]2 [GBdg]- | [GBdg]>d [GBdg]2 [cfa] [Bfg]3 | [cec']2 z2 z4 || %36
[K:F]!mp! (3c'd'c' (3aga (3c'd'c' (3bgb | (3c'd'c' (3aga c' [fac'f']3 | %38
 (3c'd'c' (3aga (3c'd'c' (3bgb | (3c'd'c' (3aga c' [fa_e'f']3 | (3fgf (3dcd (3fgf (3_ece | %41
 (3fgf (3dcd f [_Bdfb]3 | z3/2 c'<[cfa]c'/ [cgbc'] [cgbc']2 [cfac']- | [cfac']8 | %44
 z3/2 c'<bd/ ^d>ea>g | (3fgf c2 (!^![ac']2 c2) | (!^![^g=b]2 d2) (!^![=g_b]2 c2) | [cfa]4 z4 | %48
 z3/2 g<fA/ ^A>=Be>d | (3cdc G2 (!>![eg]2 G2) | (!>![^d^f]2 A2) (!>![=d=f]2 G2) | [Gce]2 z2 z4 || %52
!f! (3c'd'c' (3aga (3c'd'c' (3bgb | (3c'd'c' (3aga c' [fac'f']3 | (3c'd'c' (3aga (3c'd'c' (3bgb | %55
 (3c'd'c' (3aga c' [fa_e'f']3 | (3fgf (3dcd (3fgf (3_ece | (3fgf (3dcd f [_Bdfb]3 | %58
 z3/2 c'<[cfa]c'/ [cgbc'] [cgbc']2 [cfac']- | [cfac']8 | z3/2 c'<bd/ ^d>ea>g | %61
 (3fgf c2 (!^![ac']2 c2) | (!^![^g=b]2 d2) (!^![=g_b]2 c2) | [cfa]4 z4 | z d'/c'/ =b>c' d'>c'_b>g | %65
 (3ac'a (3g^ga d'>c'b>a | bd^de c'>b=d>e | (!^!f>g)(!^!a>c') !^![ff']2 z2 || %68
[K:C]!mf! z3/2 g<[ce]A/ [^A^c]>g[Bd]>G | [=ce]>g[ce]>A [^A^c]>g[Bd]>G | %70
 [=ce]>g[ce]>A [^A^c]>g[Bd]>G | [=ce] [Gg]2 [_Bg]- [Bg]4 | z3/2 c'<[fa]d/ [^d^f]>c'[eg]>c | %73
 [=fa]>c'[fa]>d [^d^f]>c'[eg]>c | [=fa]>c'[fa]>d [^d^f]>c'[eg]>c | [=fa] [cc']2 [cac']- [cac']4 | %76
 z2 [Fcf]2 [=E=B=e]2 [DAd]2 | [Gcg]3 ^f [B_eb] [Aa]2 [GBdg]- | %78
 [GBdg]>d [GBdg]2 [B_fb] [Aa]2 [Gc=eg]- | [Gceg]8 | z2 [Fcf]2 [EBe]2 [DAd]2 | %81
 [Gcg]3 ^f [B_eb] [Aa]2 [GBdg]- | [GBdg]>d [GBdg]2 [cfa] [Bfg]3 | [cegc']4 !^![cegc']2 z2 || %84
[K:Eb][M:2/2]!f!"^TRIO" [B,EB]2 [CE=A]2 [=B,D_A] [_B,^CG]3 | [E_Gc]2 [DF_c]2 [_D_FB] [CE=A]2 B | %86
 [=F_Ad]>B[FA_d]>B [FAc] [FA_c]2 [FAB]- | [FAB]2 z2 !^![Adb]2 z2 |: %88
!p!!f!"_-" z3/2 c'<[gb]f/ [^fb]>c'[gb]>=f | [^fb]>c'[gb]>=f [gb] [_dge']3 | %90
 z3/2 c'<[_gb]f/ [gb]>c'[gb]>f | [_gb]>c'[gb]>f [gb] [_e_gbe']3 | z3/2 =g<[cf]=B/ [c_e]>g[cf]>B | %93
 [c_e]>g[cf]>=B [ce] [cec']3 | [^C=EB]2 [C_E=A]2 [=B,D_A] [_B,^CG]3 | [F=Ad] c2 [_Adg]- [Adg] f3 | %96
 z3/2 c'<[gb]f/ [^fb]>c'[gb]>=f | [^fb]>c'[gb]>=f [gb] [_dge']3 | z3/2 c'<[_gb]f/ [gb]>c'[gb]>f | %99
 [_gb]>c'[gb]>f [gb] [_e_gbe']3 | z3/2 e'<[_ac']f/ ^f [f=ad']2 c' | [gb]>c'[gb]>d ^d [=ec']2 b | %102
 (3aba g>a b>ac>d | e>f(!^!g>b) !^![ee']2 z2 :| %104
V:2
 !>![B,,B,]2 [C,C]!>![D,D]- [D,D][E,E] !>![F,F]2 | !>![G,G]2 [F,F]!>![E,E]- [E,E][D,D] !>![C,C]2 | %2
 !>![B,,B,]2 [A,,A,][G,,G,]- [G,,G,][F,,F,] !>![E,,E,]2 | %3
 !>![D,,D,]2 !>![G,,,G,,]2 !^![G,B,DG]2 z2 || [C,,C,]2 [G,CE]2 [D,,D,]2 [G,B,DF]2 | %5
 [E,,E,]2 [G,CE]2 [F,,F,]2 [G,B,DF]2 | [E,,E,]2 [G,CE]2 [D,,D,]2 [G,B,DF]2 | %7
 [C,,C,]2 [G,CE]2 [E,,E,]2 [G,_B,CE]2 | [F,,F,]2 [A,CF]2 [G,,G,]2 [G,_B,CE]2 | %9
 [A,,A,]2 [A,CF]2 [_B,,_B,]2 [G,B,CE]2 | [A,,A,]2 [A,CF]2 [G,,G,]2 [G,_B,CE]2 | %11
 [F,,F,]2 [A,CF]2 [_E,,_E,]2 [F,A,CE]2 | [D,,D,]2 [_A,,_A,]2 [G,,G,]2 [F,,F,]2 | %13
 [E,,E,]2 [G,CE]2 [_E,,_E,]2 [^F,CE]2 | [D,,D,]2 [G,B,=F]2 [G,,,G,,]2 [G,B,F]2 | %15
 [C,,C,]2 [G,CE]2 [^C,,^C,]2 [G,_B,CE]2 | %16
"^Roll Bass"{/D,,} !^!D,2{/_A,,} _A,2{/G,,} G,2{/F,,} F,2 |{/E,,} E,2 [G,CE]2 [_E,,_E,]2 [^F,CE]2 | %18
 [D,,D,]2 [G,B,D=F]2 [G,,,G,,]2 [G,B,DF]2 | [C,,C,]2 [G,CE]2 [G,,,G,,]2 [G,CE]2 || %20
 [C,,C,]2 [G,CE]2 [D,,D,]2 [G,B,DF]2 | [E,,E,]2 [G,CE]2 [F,,F,]2 [G,B,DF]2 | %22
 [E,,E,]2 [G,CE]2 [D,,D,]2 [G,B,DF]2 | [C,,C,]2 [G,CE]2 [E,,E,]2 [G,_B,CE]2 | %24
 !>![F,,F,]2 [A,CF]2 [G,,G,]2 [G,_B,CE]2 | [A,,A,]2 [A,CF]2 [_B,,_B,]2 [G,B,CE]2 | %26
 [A,,A,]2 [A,CF]2 [G,,G,]2 [G,_B,CE]2 | [F,,F,]2 [A,CF]2 [_E,,_E,]2 [F,A,CE]2 | %28
 [D,,D,]2 [_A,,_A,]2 [G,,G,]2 [F,,F,]2 | [E,,E,]2 [G,CE]2 [_E,,_E,]2 [^F,CE]2 | %30
 [D,,D,]2 [G,B,=F]2 [G,,,G,,]2 [G,B,F]2 | [C,,C,]2 [G,CE]2 [^C,,^C,]2 [G,_B,CE]2 | %32
"^Roll Bass"{/D,,} !>!D,2{/_A,,} _A,2{/G,,} G,2{/F,,} F,2 |{/E,,} E,2 [G,CE]2 [_E,,_E,]2 [^F,CE]2 | %34
 [D,,D,]2 [G,B,D=F]2 [G,,,G,,]2 [G,B,DF]2 | %35
 !arpeggio![C,,E,]2 !>![C,,C,]2 !>![D,,D,]2 !>![E,,E,]2 || %36
[K:F] [F,,F,]2 [A,CF]2 [G,,G,]2 [G,B,CE]2 | [A,,A,]2 [A,CF]2 [F,,F,]2 [A,CF]2 | %38
 [F,,F,]2 [A,CF]2 [G,,G,]2 [G,B,CE]2 | [A,,A,]2 [A,CF]2 [F,,F,]2 [A,C_G]2 | %40
 [B,,,B,,]2 [B,DF]2 [C,,C,]2 [A,C_EF]2 | [D,,D,]2 [B,DF]2 [_D,,_D,]2 [G,=B,_DF]2 | %42
 [C,,C,]2 [A,CF]2 [E,,E,]2 [G,B,CE]2 | [F,,F,]2 [A,CF]2 [C,,C,]2 [A,CF]2 | %44
 [G,,G,]2 [G,B,CE]2 [C,,C,]2 [G,B,CE]2 | [F,,F,]2 [A,CF]2 [C,,C,]2 [A,CF]2 | %46
 [D,,D,]2 [^G,=B,DF]2 [E,,E,]2 [=G,_B,CE]2 | [F,,F,]2 [A,CF]2 [C,,C,]2 [^C,,^C,]2 | %48
 [D,,D,]2 [G,=B,DF]2 [G,,G,]2 [G,B,DF]2 | [E,,E,]2 [G,CE]2 [G,,,G,,]2 [G,CE]2 | %50
 [A,,,A,,]2 [A,C^F]2 [B,,,B,,]2 [G,=B,DF]2 | %51
 !arpeggio![C,,E,]2 !>![C,,C,]2 !>![D,,D,]2 !>![E,,E,]2 || %52
 !arpeggio![F,,F,]2 [A,CF]2 [G,,G,]2 [G,B,CE]2 | [A,,A,]2 [A,CF]2 [F,,F,]2 [A,CF]2 | %54
 [F,,F,]2 [A,CF]2 [G,,G,]2 [G,B,CE]2 | [A,,A,]2 [A,CF]2 [F,,F,]2 [A,C_G]2 | %56
 [B,,,B,,]2 [B,DF]2 [C,,C,]2 [A,C_EF]2 | [D,,D,]2 [B,DF]2 [_D,,_D,]2 [G,=B,_DF]2 | %58
 [C,,C,]2 [A,CF]2 [E,,E,]2 [G,B,CE]2 | [F,,F,]2 [A,CF]2 [C,,C,]2 [A,CF]2 | %60
 [G,,G,]2 [G,B,CE]2 [C,,C,]2 [G,B,CE]2 | [F,,F,]2 [A,CF]2 [C,,C,]2 [A,CF]2 | %62
 [D,,D,]2 [^G,=B,DF]2 [E,,E,]2 [=G,_B,CE]2 | [F,,F,]2 [A,CF]2 [F,,F,]2 [^F,,^F,]2 | %64
 [G,,G,]2 [=F,,=F,]2 [E,,E,]2 [G,B,CE]2 | [A,,A,]2 [G,,G,]2 [^F,,^F,]2 [A,CD^F]2 | %66
 [G,,G,]2 [=F,,=F,]2 [E,,E,]2 [G,B,CE]2 | !^![F,,F,]2 !^![A,CF]2 !^![CFA]2 z2 || %68
[K:C] [C,,C,]2 [G,CE]2 [D,,D,]2 [G,B,DF]2 | [E,,E,]2 [G,CE]2 [F,,F,]2 [G,B,DF]2 | %70
 [E,,E,]2 [G,CE]2 [D,,D,]2 [G,B,DF]2 | [C,,C,]2 [G,CE]2 [E,,E,]2 [G,_B,CE]2 | %72
 [F,,F,]2 [A,CF]2 [G,,G,]2 [G,_B,CE]2 | [A,,A,]2 [A,CF]2 [_B,,_B,]2 [G,B,CE]2 | %74
 [A,,A,]2 [A,CF]2 [G,,G,]2 [G,_B,CE]2 | [F,,F,]2 [A,CF]2 [_E,,_E,]2 [F,A,CE]2 | %76
 [D,,D,]2 [_A,,_A,]2 [G,,G,]2 [F,,F,]2 | [E,,E,]2 [G,CE]2 [_E,,_E,]2 [^F,CE]2 | %78
 [D,,D,]2 [G,B,=F]2 [G,,,G,,]2 [G,B,F]2 | [C,,C,]2 [G,CE]2 [^C,,^C,]2 [G,_B,CE]2 | %80
{/D,,} !^!D,2{/_A,,} _A,2{/G,,} G,2{/F,,} F,2 |{/E,,} E,2 [G,CE]2 [_E,,_E,]2 [^F,CE]2 | %82
 [D,,D,]2 [G,B,D=F]2 [G,,,G,,]2 [G,B,DF]2 | [C,,C,]2 G,,2- [C,,G,,E,]2 z2 || %84
[K:Eb][M:2/2] !arpeggio![G,,G,]2 !arpeggio![_G,,_G,]2 !arpeggio![F,,F,]2 !arpeggio![=E,,=E,]2 | %85
 !arpeggio![=A,,=A,]2 !arpeggio![_A,,_A,]2 !arpeggio![G,,G,]2 !arpeggio![^F,,^F,]2 | %86
 [B,,,B,,]2 [=B,,,=B,,]2 [C,,C,]2 [^C,,^C,]2 | [D,,D,]2 [_B,,,_B,,]2 !^![A,B,DF]2 z2 |: %88
 !arpeggio!!^![E,,G,]2 [G,B,E]2 [B,,,B,,]2 [G,B,E]2 | [E,,E,]2 [G,B,E]2 [B,,,B,,]2 [G,B,E]2 | %90
 !arpeggio![E,,_G,]2 [A,CE_G]2 [A,,,A,,]2 [A,CEG]2 | [E,,E,]2 [A,CE_G]2 [A,,,A,,]2 [A,CEG]2 | %92
 !^![F,,F,]2 [=A,CEF]2 [E,,E,]2 [A,CEF]2 | [C,,C,]2 [=A,CEF]2 [F,,F,]2 [A,CEF]2 | %94
 !arpeggio![G,,G,]2 !arpeggio![_G,,_G,]2 !arpeggio![F,,F,]2 !arpeggio![=E,,=E,]2 | %95
 !arpeggio![_E,,_E,]2 !>![E,F,A,C]2 [D,,D,]2 !>![_A,B,DF]2 | %96
 !arpeggio!!^![E,,G,]2 [G,B,E]2 [B,,,B,,]2 [G,B,E]2 | [E,,E,]2 [G,B,E]2 [B,,,B,,]2 [G,B,E]2 | %98
 !arpeggio!!^![E,,_G,]2 [A,CE_G]2 [A,,,A,,]2 [A,CEG]2 | [E,,E,]2 [A,CE_G]2 [A,,,A,,]2 [A,CEG]2 | %100
 !^![_A,,_A,]2 [G,,G,]2 [^F,,^F,]2 [F,=A,CD]2 | [G,,G,]2 [=F,,=F,]2 [=E,,=E,]2 [G,B,C=E]2 | %102
 [F,,F,]2 [_E,,_E,]2 [D,,D,]2 [A,B,DF]2 | %103
 !arpeggio![E,,B,,G,]2 !^![B,EG]2 !^![EGB]2"^D.C.\nad lib.\n" z2 :| %104

